X: 1
T: Jack's The Lad
M: 4/4
L: 1/8
R: hornpipe
K: Dmaj
|:(3 ABc|d2 D2 D2 AG|FAdc defd|e2 E2 E2 ed|cea^g a2 f2|
gfga bagf|gfec dcBA|Bdce dfeg|f2 d2 d2:|
|:AG|FAdA FAdA|B2 G2 G2 GF|GBec ^GBed|c2 A2 A2 ef|
gfga bagf|gfec dcBA|Bdce dfeg|f2 d2 d2:||
